svg/editor/list_collapse_line.svg

<?xml version="1.0" encoding="UTF-8"?>
<svg width="24px" height="24px" viewBox="0 0 24 24" version="1.1" xmlns="http://www.w3.org/2000/svg" xmlns:xlink="http://www.w3.org/1999/xlink">
    <title>list_collapse_line</title>
    <g id="Icon" stroke="none" stroke-width="1" fill="none" fill-rule="evenodd">
        <g id="Editor" transform="translate(-576.000000, -192.000000)" fill-rule="nonzero">
            <g id="list_collapse_line" transform="translate(576.000000, 192.000000)">
                <path d="M24,0 L24,24 L0,24 L0,0 L24,0 Z M12.5934901,23.257841 L12.5819402,23.2595131 L12.5108777,23.2950439 L12.4918791,23.2987469 L12.4918791,23.2987469 L12.4767152,23.2950439 L12.4056548,23.2595131 C12.3958229,23.2563662 12.3870493,23.2590235 12.3821421,23.2649074 L12.3780323,23.275831 L12.360941,23.7031097 L12.3658947,23.7234994 L12.3769048,23.7357139 L12.4804777,23.8096931 L12.4953491,23.8136134 L12.4953491,23.8136134 L12.5071152,23.8096931 L12.6106902,23.7357139 L12.6232938,23.7196733 L12.6232938,23.7196733 L12.6266527,23.7031097 L12.609561,23.275831 C12.6075724,23.2657013 12.6010112,23.2592993 12.5934901,23.257841 L12.5934901,23.257841 Z M12.8583906,23.1452862 L12.8445485,23.1473072 L12.6598443,23.2396597 L12.6498822,23.2499052 L12.6498822,23.2499052 L12.6471943,23.2611114 L12.6650943,23.6906389 L12.6699349,23.7034178 L12.6699349,23.7034178 L12.678386,23.7104931 L12.8793402,23.8032389 C12.8914285,23.8068999 12.9022333,23.8029875 12.9078286,23.7952264 L12.9118235,23.7811639 L12.8776777,23.1665331 C12.8752882,23.1545897 12.8674102,23.1470016 12.8583906,23.1452862 L12.8583906,23.1452862 Z M12.1430473,23.1473072 C12.1332178,23.1423925 12.1221763,23.1452606 12.1156365,23.1525954 L12.1099173,23.1665331 L12.0757714,23.7811639 C12.0751323,23.7926639 12.0828099,23.8018602 12.0926481,23.8045676 L12.108256,23.8032389 L12.3092106,23.7104931 L12.3186497,23.7024347 L12.3186497,23.7024347 L12.3225043,23.6906389 L12.340401,23.2611114 L12.337245,23.2485176 L12.337245,23.2485176 L12.3277531,23.2396597 L12.1430473,23.1473072 Z" id="MingCute"></path>
                <path d="M4,6 C3.44772,6 3,5.55228 3,5 C3,4.44772 3.44772,4 4,4 L12,4 C12.5523,4 13,4.44772 13,5 C13,5.55228 12.5523,6 12,6 L4,6 Z M20.8371,8.39405 C20.9687,8.65153 20.7746,8.95006 20.4579,8.9774 L19.8919665,9.01952504 L19.8919665,9.01952504 L19.4281375,9.04497001 L19.4281375,9.04497001 L18.9009845,9.06486139 L18.9009845,9.06486139 L18.3155715,9.07624814 L18.3155715,9.07624814 L17.7068589,9.07646304 L17.7068589,9.07646304 L17.1513623,9.06632565 L17.1513623,9.06632565 L16.6473926,9.04838332 L16.6473926,9.04838332 L16.1992054,9.02511538 L16.1992054,9.02511538 L15.811056,8.99900116 L15.811056,8.99900116 L15.4872,8.97252 L15.4872,8.97252 C15.1905,8.94613 15.0257,8.67398 15.1547,8.42053 L15.3054264,8.13153952 L15.3054264,8.13153952 L15.4944712,7.78552456 L15.4944712,7.78552456 L15.7225928,7.38743584 C15.7639116,7.31702328 15.8068902,7.24464726 15.8515444,7.17041092 L16.1397032,6.70349416 L16.1397032,6.70349416 L16.2991,6.45484 C16.40888,6.285786 16.516064,6.125154 16.6197824,5.97325936 L16.9196712,5.54410288 L16.9196712,5.54410288 L17.1935488,5.16926272 L17.1935488,5.16926272 L17.4361976,4.85063104 L17.4361976,4.85063104 L17.6424,4.5901 L17.6424,4.5901 C17.8245,4.36427 18.1715,4.35482 18.3456,4.56957 L18.6723549,4.98480894 L18.6723549,4.98480894 L18.9352875,5.3356675 L18.9352875,5.3356675 L19.2273921,5.74284686 C19.379751,5.9601017 19.54083,6.197543 19.7073,6.45377 L20.0084952,6.92938856 L20.0084952,6.92938856 L20.2715976,7.36639688 C20.3530024,7.50505672 20.4281376,7.63641968 20.4970824,7.75962392 L20.6854248,8.10389864 L20.6854248,8.10389864 L20.8371,8.39405 L20.8371,8.39405 Z M20.8371,18.3939 C20.9687,18.6514 20.7746,18.9499 20.4579,18.9773 L19.8919665,19.0194299 L19.8919665,19.0194299 L19.4281375,19.0448625 L19.4281375,19.0448625 L18.9009845,19.0647391 L18.9009845,19.0647391 L18.3155715,19.0761174 L18.3155715,19.0761174 L17.7068589,19.0763385 L17.7068589,19.0763385 L17.1513623,19.066211 L17.1513623,19.066211 L16.6473926,19.0482759 L16.6473926,19.0482759 L16.1992054,19.0250107 L16.1992054,19.0250107 L15.6408254,18.9855385 C15.5868198,18.9811058 15.5355818,18.9767091 15.4872,18.9724 C15.1905,18.946 15.0257,18.6739 15.1547,18.4204 L15.3054264,18.1314008 L15.3054264,18.1314008 L15.4944712,17.7853824 L15.4944712,17.7853824 L15.7225928,17.3872936 C15.7639116,17.3168812 15.8068902,17.2445054 15.8515444,17.1702693 L16.1397032,16.7033539 L16.1397032,16.7033539 L16.4617143,16.2074674 L16.4617143,16.2074674 L16.7726521,15.7518558 C16.8226698,15.6803164 16.8717124,15.6110012 16.9196712,15.5439496 L17.1935488,15.1691184 L17.1935488,15.1691184 L17.4361976,14.8505048 L17.4361976,14.8505048 L17.6424,14.59 L17.6424,14.59 C17.8245,14.3641 18.1715,14.3547 18.3456,14.5694 L18.6723549,14.984678 L18.6723549,14.984678 L18.9352875,15.33555 L18.9352875,15.33555 L19.2273921,15.742726 C19.379751,15.959974 19.54083,16.1974 19.7073,16.4536 L19.8626889,16.6959132 L19.8626889,16.6959132 L20.1447783,17.1528784 L20.1447783,17.1528784 L20.3890125,17.56865 C20.42659,17.634225 20.46261,17.697868 20.4970824,17.7594712 L20.6854248,18.1037504 L20.6854248,18.1037504 L20.8371,18.3939 L20.8371,18.3939 Z M4,20 C3.44772,20 3,19.5523 3,19 C3,18.4477 3.44772,18 4,18 L12,18 C12.5523,18 13,18.4477 13,19 C13,19.5523 12.5523,20 12,20 L4,20 Z M3,12 C3,12.5523 3.44772,13 4,13 L12,13 C12.5523,13 13,12.5523 13,12 C13,11.4477 12.5523,11 12,11 L4,11 C3.44772,11 3,11.4477 3,12 Z" id="形状" fill="#09244B"></path>
            </g>
        </g>
    </g>
</svg>

<svg xmlns="http://www.w3.org/2000/svg" width="24" height="24"><g fill="none" fill-rule="nonzero"><path d="M24 0v24H0V0h24ZM12.593 23.258l-.011.002-.071.035-.02.004-.014-.004-.071-.035c-.01-.004-.019-.001-.024.005l-.004.01-.017.428.005.02.01.013.104.074.015.004.012-.004.104-.074.012-.016.004-.017-.017-.427c-.002-.01-.009-.017-.017-.018Zm.265-.113-.013.002-.185.093-.01.01-.003.011.018.43.005.012.008.007.201.093c.012.004.023 0 .029-.008l.004-.014-.034-.614c-.003-.012-.01-.02-.02-.022Zm-.715.002a.023.023 0 0 0-.027.006l-.006.014-.034.614c0 .012.007.02.017.024l.015-.002.201-.093.01-.008.004-.011.017-.43-.003-.012-.01-.01-.184-.092Z"/><path fill="#09244B" d="M4 6a1 1 0 0 1 0-2h8a1 1 0 1 1 0 2H4Zm16.837 2.394c.132.258-.062.556-.38.583l-.565.043-.464.025-.527.02-.585.011h-.61l-.555-.01-.504-.018-.448-.023L15.811 9l-.324-.026c-.296-.027-.461-.299-.332-.552l.15-.29.19-.345.228-.399c.04-.07.084-.142.129-.217l.288-.467.16-.248c.109-.17.216-.33.32-.482l.3-.429.274-.375.242-.318.206-.26c.183-.227.53-.236.704-.021l.326.415.263.35.292.408c.153.217.314.455.48.71l.301.476.264.437c.081.14.156.27.225.394l.188.344.152.29Zm0 10c.132.257-.062.556-.38.583l-.565.042-.464.026-.527.02-.585.011h-.61l-.555-.01-.504-.018-.448-.023-.558-.04a22.24 22.24 0 0 1-.154-.013c-.296-.026-.461-.298-.332-.552l.15-.289.19-.346.228-.398c.04-.07.084-.142.129-.217l.288-.467.322-.496.31-.455c.05-.072.1-.141.148-.208l.274-.375.242-.318.206-.261c.183-.226.53-.235.704-.02l.326.415.263.35.292.408c.153.217.314.454.48.71l.156.243.282.457.244.416.108.19.188.345.152.29ZM4 20a1 1 0 1 1 0-2h8a1 1 0 1 1 0 2H4Zm-1-8a1 1 0 0 0 1 1h8a1 1 0 1 0 0-2H4a1 1 0 0 0-1 1Z"/></g></svg>
